X:1
T:G minor
T:G minor 
T:J.S. Bach
T:jvs
T:jvs
T:jvs
T:jvs
C:J.S. Bach
Z:jvs
%%score 1 { 2 | 3 }
L:1/8
Q:1/4=100
M:4/4
K:Bb
V:1 treble nm="PianoVoorslagen" snm="Pno."
V:2 treble nm="Piano"
V:3 bass 
V:1
"^\n" z8 | z8 | z8 | z8 | z8 | z8 | z8 | z8 | z8 | z8 | z8 | z8 | z8 | z8 | z8 | z8 | z8 | z8 | %18
 z8 | z8 | z6 f- f/4 (e/4 f/4 e/4) | z6 e- e/4 (d/4 e/4 d/4) | z8 | z8 | z8 | z8 | z8 | z8 | z8 | %29
 z8 | z8 | z8 | z8 | z8 | z8 | z8 | z8 | z8 | z8 | z8 | z8 | z8 | z8 | z8 | z8 | z8 | z8 | z8 | %48
 z8 | z8 | z8 | z8 | z8 | z8 | z8 | z8 | z8 | z8 | z8 | z8 | z8 | z8 | z8 | z8 | z8 | z8 |] %66
V:2
 B/D/C/D/ B,/D/C/D/ B/D/C/D/ B,/D/C/D/ | B/E/D/E/ B,/E/D/E/ B/E/D/E/ B,/E/D/E/ | %2
 A/C/B,/C/ A,/C/B,/C/ A/C/B,/C/ A,/C/B,/C/ | A/D/C/D/ B,/D/C/D/ A/D/C/D/ B,/D/C/D/ | %4
 G/E/D/E/ B,/E/D/E/ G/E/D/E/ B,/E/D/E/ | A/E/D/E/ C/E/D/E/ A/E/D/E/ C/E/D/E/ | %6
 A/G/^F/G/ D/G/F/G/ A/G/F/G/ D/G/F/G/ | B/G/^F/G/ D/G/F/G/ B/G/F/G/ A/G/F/G/ | %8
 B/D/C/D/ B,/D/C/D/ B/D/C/D/ B,/D/C/D/ | B/E/D/E/ B,/E/D/E/ B/E/D/E/ B,/E/D/E/ | %10
 A/C/B,/C/ B/C/B,/C/ A/C/B,/C/ G/C/B,/C/ | A/D/C/D/ B,/D/C/D/ A/D/C/D/ B,/D/C/D/ | %12
 G/E/D/E/ B,/E/D/E/ G/E/D/E/ B,/E/D/E/ | A/E/D/E/ C/E/D/E/ A/E/D/E/ C/E/D/E/ | %14
 A/G/^F/G/ D/G/F/G/ A/G/F/G/ D/G/F/G/ | B/G/^F/G/ =B/G/=F/G/ c/G/F/G/ d/G/F/G/ | %16
 e/d/c/d/ eG _Agfe | d/c/d/e/ fF Gfed | c/B/_A/B/ c2 c/B/_A/B/ c2 | c/B/_A/B/ c/F/^F/e/ d2 z d | %20
 e/d/c/d/ e/f/g/G/ _Ag f2({ef)e} | d/c/B/c/ d/e/f/F/ Gf e2({de)d} | c/B/_A/B/ cD EFAc | %23
 =BF^Fe d2 z/4 z/4 B/c/d/ | g/f/e/d/ e/f/g/c/ _agfe | f/e/d/c/ d/e/f/F/ Gfed | %26
 e/d/c/B/ c/d/e/_A/ fedc | =B>B cd edef | g/e/d/e/ c/e/d/e/ g/e/d/e/ c/e/d/e/ | %29
 _a/e/d/e/ c/e/d/e/ a/e/d/e/ c/e/d/e/ | f/d/c/d/ B/d/c/d/ f/d/c/d/ B/d/c/d/ | %31
 g/e/d/e/ B/e/d/e/ g/e/d/e/ B/e/d/e/ | e/c/B/c/ _A/c/B/c/ e/c/B/c/ A/c/B/c/ | %33
 f/c/B/c/ _A/c/B/c/ f/c/B/c/ A/c/B/c/ | f/d/c/d/ _A/d/c/d/ f/d/c/d/ A/d/c/d/ | %35
 f/d/c/d/ =B/d/c/d/ e/d/c/d/ f/d/c/d/ | g/e/d/e/ c/e/d/e/ g/e/d/e/ f/e/d/e/ | %37
 _a/e/d/e/ c/e/d/e/ a/e/d/e/ g/e/d/e/ | f/d/c/d/ B/d/c/d/ f/d/c/d/ e/d/c/d/ | %39
 g/e/d/e/ B/e/d/e/ g/e/d/e/ f/e/d/e/ | e/c/B/c/ _A/c/B/c/ e/c/B/c/ A/c/B/c/ | %41
 f/c/B/c/ _A/c/B/c/ f/c/B/c/ e/c/B/c/ | d/c/=B/c/ _A/c/B/c/ d/c/B/c/ e/c/B/c/ | %43
 d/G/F/G/ D/G/F/G/ d/G/F/G/ D/G/F/G/ | c/E/D/E/ C/E/D/E/ B/D/C/D/ A,/D/C/D/ | %45
 B/D/C/D/ B,/D/C/D/ B/D/C/D/ B,/D/C/D/ | B/E/D/E/ B,/E/D/E/ B/E/D/E/ B,/E/D/E/ | %47
 A/C/B,/C/ A,/C/B,/C/ A/C/B,/C/ A,/C/B,/C/ | A/D/C/D/ B,/D/C/D/ A/D/C/D/ B,/D/C/D/ | %49
 G/E/D/E/ B,/E/D/E/ G/E/D/E/ B,/E/D/E/ | A/E/D/E/ C/E/D/E/ A/E/D/E/ C/E/D/E/ | %51
 A/G/^F/G/ D/G/F/G/ A/G/F/G/ D/G/F/G/ | B/G/^F/G/ D/G/F/G/ B/G/F/G/ A/G/F/G/ | %53
 B/D/C/D/ B,/D/C/A/ B/D/C/A/ B/D/C/B/ | c/E/D/E/ C/E/D/A/ c/E/D/G/ c/E/D/F/ | %55
 c/C/B,/C/ B/C/B,/C/ A/C/B,/C/ G/C/B,/C/ | A/D/C/D/ B,/D/C/G/ A/D/C/G/ A/D/C/F/ | %57
 G/E/D/E/ B,/E/D/F/ G/E/D/E/ A/E/B/E/ | c/E/D/E/ C/E/D/A/ c/E/D/G/ B/E/D/E/ | %59
 A/G/^F/G/ G/G/F/G/ A/G/F/G/ B/G/F/G/ | A/G/^F/G/ D/G/F/G/ A/G/F/G/ D/G/F/G/ | %61
 A,/C/E/G/ ^F/E/D/E/ A/F/e/c/ F/E/D/E/ | G,/B,/D/^F/ G/D/C/D/ G/D/B/G/ d/B/A/B/ | %63
 e/c/=B/c/ G/c/B/c/ d/_B/A/B/ D/B/A/B/ | [Gc]3 B [^FA]3 G | [B,G]8 |] %66
V:3
 G,,D,G,D, G,,D,G,D, | C,,G,,C,G,, C,,G,,C,G,, | F,,C,F,C, F,,C,F,C, | B,,F,B,F, B,,F,B,F, | %4
 E,,B,,E,B,, E,,B,,E,B,, | A,,E,A,E, A,,E,A,E, | D,,A,,D,A,, D,,A,,D,A,, | G,,D,G,D, G,,D,G,D, | %8
 G,,>B, A,B, G,,>B, A,B, | C,,>E, D,E, C,,>E, D,E, | F,,>A, G,A, F,,>A, G,A, | %11
 B,,,>D, C,D, B,,,>D, C,D, | E,,>G, F,G, E,,>G, F,G, | A,,>C B,C A,,>C B,C | %14
 D,,>^F, =E,F, D,,>^F, E,F, | G,,>D, [G,=B,]2 G,,>D, [G,B,]2 | C,G, E/D/C/G,/ F,,C, _A,/G,/F,/C,/ | %17
 B,,F, D/C/B,/F,/ E,,B,, G,/F,/E,/B,,/ | _A,,E, C/B,/_A,/E,/ F,,E, A,/G,/F,/C,/ | %19
 D,,_A,,[C,F,]A,, G,,D,[F,=B,]D, | C,G,[CE]G, F,,C,[F,_A,]C, | B,,F,[B,D]F, E,,B,,[E,G,]B,, | %22
 _A,,E,[_A,C]E, F,,C,[F,A,]C, | D,,_A,,[C,F,]A,, G,,D, [F,=B,]D,/ z/ | C,G,[CE]G, F,,C,[F,_A,]C, | %25
 B,,F,[B,D]F, E,,B,,[E,G,]B,, | _A,,E,[_A,C]E, F,,C,[F,A,]C, | D,,_A,,[C,F,]A,, G,,D,[F,=B,]D, | %28
 C,/G,/C/D/ [G,C]/E/C/G,/ C,/G,/C/D/ [G,C]/E/C/G,/ | %29
 F,,/C,/F,/G,/ [C,F,]/_A,/F,/C,/ F,,/C,/F,/G,/ [C,F,]/A,/F,/C,/ | %30
 B,,/F,/B,/C/ [F,B,]/D/B,/F,/ B,,/F,/B,/C/ [F,B,]/D/B,/F,/ | %31
 E,,/B,,/E,/F,/ [B,,E,]/G,/E,/B,,/ E,,/B,,/E,/F,/ [B,,E,]/G,/E,/B,,/ | %32
 _A,,/E,/_A,/B,/ [E,A,]/C/A,/E,/ A,,/E,/A,/B,/ [E,A,]/C/A,/E,/ | %33
 F,,/C,/F,/G,/ [C,F,]/_A,/F,/C,/ F,,/C,/F,/G,/ [C,F,]/A,/F,/C,/ | %34
 D,,/_A,,/D,/E,/ [A,,D,]/F,/D,/A,,/ D,,/A,,/D,/E,/ [A,,D,]/F,/D,/A,,/ | %35
 G,,/D,/G,/A,/ [D,G,]/=B,/G,/D,/ G,,/D,/G,/A,/ [D,G,]/B,/G,/D,/ | %36
 C,/G,/C/D/ [G,C]/E/C/G,/ C,/G,/C/D/ [G,C]/E/C/G,/ | %37
 F,,/C,/F,/G,/ [C,F,]/_A,/F,/C,/ F,,/C,/F,/G,/ [C,F,]/A,/F,/C,/ | %38
 B,,/F,/B,/C/ [F,B,]/D/B,/F,/ B,,/F,/B,/C/ [F,B,]/D/B,/F,/ | %39
 E,,/B,,/E,/F,/ [B,,E,]/G,/E,/B,,/ E,,/B,,/E,/F,/ [B,,E,]/G,/E,/B,,/ | %40
 _A,,/E,/_A,/B,/ [E,A,]/C/A,/E,/ A,,/E,/A,/B,/ [E,A,]/C/A,/E,/ | %41
 F,,/C,/F,/G,/ [C,F,]/_A,/F,/C,/ F,,/C,/F,/G,/ [C,F,]/A,/F,/C,/ | %42
 D,,/_A,,/D,/E,/ [A,,D,]/F,/D,/A,,/ D,,/A,,/D,/E,/ [A,,D,]/F,/D,/A,,/ | %43
 G,,/D,/G,/A,/ [D,G,]/=B,/G,/D,/ G,,/D,/G,/A,/ [D,G,]/B,/G,/D,/ | %44
 E,,/B,,/E,/F,/ [B,,E,]/G,/E,/B,,/ D,,/A,,/D,/=E,/ [A,,D,^F,]2 | %45
 G,,/D,/G,/A,/ [D,G,]/B,/G,/D,/ G,,/D,/G,/A,/ [D,G,]/B,/G,/D,/ | %46
 C,,/G,,/C,/D,/ [G,,C,]/E,/C,/G,,/ C,,/G,,/C,/D,/ [G,,C,]/E,/C,/G,,/ | %47
 F,,/C,/F,/G,/ [C,F,]/A,/F,/C,/ F,,/C,/F,/G,/ [C,F,]/A,/F,/C,/ | %48
 B,,/F,/B,/C/ [F,B,]/D/B,/F,/ B,,/F,/B,/C/ [F,B,]/D/B,/F,/ | %49
 E,,/B,,/E,/F,/ [B,,E,]/G,/E,/B,,/ E,,/B,,/E,/F,/ [B,,E,]/G,/E,/B,,/ | %50
 A,,/E,/A,/B,/ [E,A,]/C/A,/E,/ A,,/E,/A,/B,/ [E,A,]/C/A,/E,/ | %51
 D,,/A,,/D,/E,/ [A,,D,]/^F,/D,/A,,/ D,,/A,,/D,/E,/ [A,,D,]/F,/D,/A,,/ | %52
 G,,/D,/G,/A,/ [D,G,]/B,/G,/D,/ G,,/D,/G,/A,/ [D,G,]/B,/G,/D,/ | %53
 G,,/D,/A,/B,A,/G,/D,/ G,,/D,/A,/B,A,/G,/D,/ | C,,/G,,/D,/E,D,/C,/G,,/ C,,/G,,/D,/E,D,/C,/G,,/ | %55
 F,,/C,/G,/A,G,/F,/C,/ F,,/C,/G,/A,G,/F,/C,/ | B,,/F,/C/DC/B,/F,/ B,,/F,/C/DC/B,/F,/ | %57
 E,,/B,,/F,/G,F,/E,/B,,/ E,,/B,,/F,/G,F,/E,/B,,/ | A,,/E,/B,/CB,/A,/E,/ A,,/E,/B,/CB,/A,/E,/ | %59
 D,,/A,,/E,/^F,E,/D,/A,,/ D,,/A,,/E,/F,E,/D,/A,,/ | G,,/D,/A,/B,A,/G,/D,/ G,,/D,/A,/B,A,/G,/D,/ | %61
 [D,,^F,,C,]8 | [G,,B,,D,]8 | [A,,C,E,^F,]4 [G,,B,,D,]4 | [D,B,]4 [D,A,C]4 | [G,,D,]8 |] %66

